X: 12294
T: Fairy Queen, The
R: hornpipe
M: 4/4
K: Dmajor
|:(3ABc|(3dcd (3edc d2 A>G|F>DF>A d>AF>D|(3GAG F>G E2 e>f|1 g>ec>e d>c:|2 g>ec>e d2||
|:A2|d>f (3fff g>fg>a|b>a^g>a b>ag>a|f>dA>F (3GAG e>f|1 g>ec>e d>cB>A:|2 g>ec>e d2||

